svg/map/anchor_fill.svg

<?xml version="1.0" encoding="UTF-8"?>
<svg width="24px" height="24px" viewBox="0 0 24 24" version="1.1" xmlns="http://www.w3.org/2000/svg" xmlns:xlink="http://www.w3.org/1999/xlink">
    <title>anchor_fill</title>
    <g id="页面-1" stroke="none" stroke-width="1" fill="none" fill-rule="evenodd">
        <g id="Map" transform="translate(-576.000000, -48.000000)">
            <g id="anchor_fill" transform="translate(576.000000, 48.000000)">
                 <path d="M24,0 L24,24 L0,24 L0,0 L24,0 Z M12.5934901,23.257841 L12.5819402,23.2595131 L12.5108777,23.2950439 L12.4918791,23.2987469 L12.4918791,23.2987469 L12.4767152,23.2950439 L12.4056548,23.2595131 C12.3958229,23.2563662 12.3870493,23.2590235 12.3821421,23.2649074 L12.3780323,23.275831 L12.360941,23.7031097 L12.3658947,23.7234994 L12.3769048,23.7357139 L12.4804777,23.8096931 L12.4953491,23.8136134 L12.4953491,23.8136134 L12.5071152,23.8096931 L12.6106902,23.7357139 L12.6232938,23.7196733 L12.6232938,23.7196733 L12.6266527,23.7031097 L12.609561,23.275831 C12.6075724,23.2657013 12.6010112,23.2592993 12.5934901,23.257841 L12.5934901,23.257841 Z M12.8583906,23.1452862 L12.8445485,23.1473072 L12.6598443,23.2396597 L12.6498822,23.2499052 L12.6498822,23.2499052 L12.6471943,23.2611114 L12.6650943,23.6906389 L12.6699349,23.7034178 L12.6699349,23.7034178 L12.678386,23.7104931 L12.8793402,23.8032389 C12.8914285,23.8068999 12.9022333,23.8029875 12.9078286,23.7952264 L12.9118235,23.7811639 L12.8776777,23.1665331 C12.8752882,23.1545897 12.8674102,23.1470016 12.8583906,23.1452862 L12.8583906,23.1452862 Z M12.1430473,23.1473072 C12.1332178,23.1423925 12.1221763,23.1452606 12.1156365,23.1525954 L12.1099173,23.1665331 L12.0757714,23.7811639 C12.0751323,23.7926639 12.0828099,23.8018602 12.0926481,23.8045676 L12.108256,23.8032389 L12.3092106,23.7104931 L12.3186497,23.7024347 L12.3186497,23.7024347 L12.3225043,23.6906389 L12.340401,23.2611114 L12.337245,23.2485176 L12.337245,23.2485176 L12.3277531,23.2396597 L12.1430473,23.1473072 Z" id="MingCute" fill-rule="nonzero"></path>
                <path d="M10.5,10.2439 C8.75221,9.62619 7.5,7.95933 7.5,6 C7.5,3.51472 9.51472,1.5 12,1.5 C14.4853,1.5 16.5,3.51472 16.5,6 C16.5,7.95933 15.2478,9.62619 13.5,10.2439 L13.5,19.35 C16.4387,18.7535 18.7535,16.4387 19.35,13.5 L18,13.5 C17.1716,13.5 16.5,12.8284 16.5,12 C16.5,11.1716 17.1716,10.5 18,10.5 L21,10.5 C21.8284,10.5 22.5,11.1716 22.5,12 C22.5,17.799 17.799,22.5 12,22.5 C6.20101,22.5 1.5,17.799 1.5,12 C1.5,11.1716 2.17157,10.5 3,10.5 L6,10.5 C6.82843,10.5 7.5,11.1716 7.5,12 C7.5,12.8284 6.82843,13.5 6,13.5 L4.65003,13.5 C5.24655,16.4387 7.5613,18.7535 10.5,19.35 L10.5,10.2439 Z M12,4.5 C11.1716,4.5 10.5,5.17157 10.5,6 C10.5,6.82843 11.1716,7.5 12,7.5 C12.8284,7.5 13.5,6.82843 13.5,6 C13.5,5.17157 12.8284,4.5 12,4.5 Z" id="形状" fill="#09244B"></path>
            </g>
        </g>
    </g>
</svg>

<svg xmlns="http://www.w3.org/2000/svg" width="24" height="24"><g fill="none" fill-rule="evenodd"><path d="M24 0v24H0V0h24ZM12.593 23.258l-.011.002-.071.035-.02.004-.014-.004-.071-.035c-.01-.004-.019-.001-.024.005l-.004.01-.017.428.005.02.01.013.104.074.015.004.012-.004.104-.074.012-.016.004-.017-.017-.427c-.002-.01-.009-.017-.017-.018Zm.265-.113-.013.002-.185.093-.01.01-.003.011.018.43.005.012.008.007.201.093c.012.004.023 0 .029-.008l.004-.014-.034-.614c-.003-.012-.01-.02-.02-.022Zm-.715.002a.023.023 0 0 0-.027.006l-.006.014-.034.614c0 .012.007.02.017.024l.015-.002.201-.093.01-.008.004-.011.017-.43-.003-.012-.01-.01-.184-.092Z"/><path fill="#09244B" d="M10.5 10.244A4.502 4.502 0 0 1 12 1.5a4.5 4.5 0 0 1 1.5 8.744v9.106a7.509 7.509 0 0 0 5.85-5.85H18a1.5 1.5 0 0 1 0-3h3a1.5 1.5 0 0 1 1.5 1.5c0 5.799-4.701 10.5-10.5 10.5S1.5 17.799 1.5 12A1.5 1.5 0 0 1 3 10.5h3a1.5 1.5 0 0 1 0 3H4.65a7.509 7.509 0 0 0 5.85 5.85v-9.106ZM12 4.5a1.5 1.5 0 1 0 0 3 1.5 1.5 0 0 0 0-3Z"/></g></svg>
